X:27
T:Cristina Pato's m2var
R:jig
M:6/8
L:1/8
K:Gmaj
"G"GAB "G"dBd |"Am"c2A "Am"cAF|"D"DFA "Am"cAc|"G"B2 B "G"DBG|
"G"DGB "G"dBd |"Am"c2A "Am"cAF|"D"DFA "Am"cAF|1 "G"~G3 "G"BdB:|2 "G"~G3 "G"G2 A||
"G"BAB "G"GAB |"C"cBc "Em"EFG|("D"GA){B}A "D"{G}AGA |"G"BdB "G"G2A|
"G"BAB "G"GAB |"C"cBc "Em"EFG|("D"GA){B}A "D"DEF |1 "G"~G3 "G"G2 A:|2 "G"~G3 "G"BdB||
"G"GAB "D"dzd |"Am"c2A "Am"cAF|"D"DFA "Am"czc|"G"B2 B "G"DBG|
"G"DGB "D"dzd |"Am"c2A "Am"cAF|"D"DFA "Am"czF|1 "G"~G3 "G"BdB:|2 "G"~G3 "G"G2 A||
"G"BAB "G"GAB |"C"cBc "Em"EFG|("D"GA) (A2) (GA) |"G"BdB "G"G2A|
"G"BAB "G"GAB |"Am"czc "Em"EFG|("D"GA){B}A "D"DEF |1 "G"~G3 "G"G2 A:|2 "G"~G3 "G"BdB||
"G"GAB "D"d2z |"D"z2d "Am"cAF|"D"DFA "Am"czz|"D"zzz "G"DBG|
"G"DGB "D"dzd |"Am"c2A "Am"cAF|"D"DFA "Am"cAF|1 "G"~G3 "G"BdB:|2 "G"~G3 "G"G2 A||
"G"BzB "G"BAB |"C"cBc "Em"EFG|"D"A4 (GA) |"G"BdB "G"G2A|
"G"BzB "G"BAB |"C"cBc "Em"EFG|"D"A3 "D"DEF |1 "G"~G3 "G"G2 A:|2 "G"~G3 "G"BdB||
